!!!OTL: Nachtigall als Warnerin
!!!OTL-incipit: Et sass e kli waeld Voegelain af ener graener Zwaige
!!!ARE: Europa, Mitteleuropa, Deutschland, Siebenbuergen
!!!SCT: D0220A
!!!TXL: @@GMW
!!!YEM: Copyright 1995, estate of Helmut Schaffrath.
**kern	**text
*ICvox	*
*M2/4yy	*
*k[b-e-]	*
*g:	*
{8d	Et
=1	=1
8gL	saß
8gJ	e
8gL	kli
8aJ	wäld
=2	=2
8b-L	Vö-
8b-J	-ge-
8b-L}	-lain
{8b-J	af
=3	=3
8ccL	e-
8b-J	-ner
8aL	grae-
8gJ	-ner
=4	=4
4a	Zwai-
8aL}	-ge...
{8gJ	.
=5	=5
8b-L	.
8b-J	.
8b-L	.
8ccJ	.
=6	=6
8ddL	.
8ddJ	.
8ddL}	.
{8gJ	.
=7	=7
8gL	.
8aJ	.
8b-L	.
8f#J	.
=8	=8
4g	.
8r}	.
==	==
!!!AGN: Liebes - Ballade
!! Variante zu D0220
!!!ONB: ESAC (Essen Associative Code) Database: DVA
!!!AMT: simple duple
!!!AIN: vox
!!!EED: Helmut Schaffrath
!!!EEV: 1.0
!!!source: Deutsche Volkslieder mit ihren Melodien Balladen. Herausgegeben vom Deutschen Volksliedarchiv. Sechster Band. Freiburg/Breisgau 1976.
!!!page: 237
!!!ENC: Anna Maria Matuszewska
!!!EEV: 2025/06/04
*-	*-
